assets/img/ticon3.svg

<svg width="80" height="80" viewBox="0 0 80 80" fill="none" xmlns="http://www.w3.org/2000/svg">
<path fill-rule="evenodd" clip-rule="evenodd" d="M70.8222 28.3241H63.292V17.657C63.292 14.2384 60.5207 11.4571 57.1142 11.4571H9.17782C5.77136 11.4573 3 14.2385 3 17.6572V45.4754C3 48.894 5.77136 51.6753 9.17782 51.6753H16.7082V62.3429C16.7082 65.7616 19.4796 68.5429 22.886 68.5429H70.8222C74.2286 68.5429 77 65.7616 77 62.3429V34.524C77 31.1054 74.2286 28.3241 70.8222 28.3241ZM6.53015 17.6573C6.53015 16.1922 7.71791 15.0001 9.17782 15.0001H57.1142C58.5741 15.0001 59.7619 16.1922 59.7619 17.6573V20.1304H6.53015V17.6573ZM16.7082 48.1324V34.5242C16.7082 33.5782 16.9213 32.681 17.3007 31.8781H6.53015V45.4752C6.53015 46.9404 7.71791 48.1324 9.17782 48.1324H16.7082ZM6.53015 28.3352V23.6734H59.7619V28.3243H22.886C22.7667 28.3243 22.6484 28.3285 22.5308 28.3352H6.53015ZM22.886 65.0001H70.8222C72.2821 65.0001 73.4698 63.8081 73.4698 62.3431H73.4697V34.5242C73.4697 33.059 72.282 31.867 70.8221 31.867H61.7189C61.6557 31.874 61.5917 31.878 61.5265 31.878H22.67C21.3111 31.9888 20.2385 33.1321 20.2385 34.5242V62.3431C20.2385 63.8081 21.4262 65.0001 22.886 65.0001Z" fill="#2C4B9B"/>
<path fill-rule="evenodd" clip-rule="evenodd" d="M51.4554 41.164C49.5748 41.164 47.8455 41.8517 46.481 42.9978C45.0823 41.8167 43.3392 41.1629 41.4954 41.1629C37.1005 41.1629 33.525 44.9108 33.525 49.5176C33.525 54.1245 37.1005 57.8724 41.4954 57.8724C43.3394 57.8724 45.0823 57.2187 46.481 56.0378C47.8455 57.1838 49.5748 57.8719 51.4554 57.8719C55.8498 57.8719 59.425 54.1242 59.425 49.5178C59.425 44.9114 55.8498 41.164 51.4554 41.164ZM44.381 53.3574C43.5675 54.0326 42.5601 54.4064 41.4952 54.4064C38.9236 54.4065 36.8314 52.2134 36.8314 49.5178C36.8314 46.8222 38.9236 44.6291 41.4952 44.6291C42.5601 44.6291 43.5674 45.003 44.381 45.6781C43.8102 46.8285 43.4858 48.1337 43.4858 49.5176C43.4858 50.9015 43.8104 52.2067 44.381 53.3574ZM46.7925 49.5177C46.7925 52.2131 48.8843 54.4058 51.4554 54.4058C54.0266 54.4058 56.1184 52.2132 56.1184 49.5177C56.1184 46.8227 54.0266 44.63 51.4554 44.63C48.8844 44.63 46.7925 46.8226 46.7925 49.5177Z" fill="#2C4B9B"/>
</svg>

<svg width="80" height="80" fill="none" xmlns="http://www.w3.org/2000/svg"><path fill-rule="evenodd" clip-rule="evenodd" d="M70.822 28.324h-7.53V17.657c0-3.419-2.771-6.2-6.178-6.2H9.178C5.77 11.457 3 14.238 3 17.657v27.818c0 3.419 2.771 6.2 6.178 6.2h7.53v10.668c0 3.419 2.772 6.2 6.178 6.2h47.936c3.407 0 6.178-2.781 6.178-6.2V34.524c0-3.419-2.771-6.2-6.178-6.2zM6.53 17.657A2.656 2.656 0 019.178 15h47.936a2.656 2.656 0 012.648 2.657v2.473H6.53v-2.473zm10.178 30.475V34.524c0-.946.213-1.843.593-2.646H6.53v13.597a2.655 2.655 0 002.647 2.657h7.53zM6.53 28.335v-4.662h53.232v4.651H22.886c-.12 0-.238.004-.355.011h-16zM22.886 65h47.936a2.655 2.655 0 002.648-2.657V34.524a2.655 2.655 0 00-2.648-2.657H61.72a1.744 1.744 0 01-.193.011H22.67a2.655 2.655 0 00-2.432 2.646v27.82A2.655 2.655 0 0022.886 65z" fill="#2C4B9B"/><path fill-rule="evenodd" clip-rule="evenodd" d="M51.455 41.164c-1.88 0-3.61.688-4.974 1.834a7.69 7.69 0 00-4.986-1.835c-4.395 0-7.97 3.748-7.97 8.355 0 4.606 3.575 8.354 7.97 8.354a7.69 7.69 0 004.986-1.834c1.364 1.146 3.094 1.834 4.974 1.834 4.395 0 7.97-3.748 7.97-8.354 0-4.607-3.575-8.354-7.97-8.354zm-7.074 12.193a4.497 4.497 0 01-2.886 1.05c-2.571 0-4.664-2.194-4.664-4.89 0-2.695 2.093-4.888 4.664-4.888 1.065 0 2.072.374 2.886 1.05a8.62 8.62 0 00-.895 3.839c0 1.383.324 2.689.895 3.84zm2.411-3.84c0 2.696 2.092 4.889 4.663 4.889 2.572 0 4.663-2.193 4.663-4.888s-2.091-4.888-4.663-4.888c-2.57 0-4.663 2.193-4.663 4.888z" fill="#2C4B9B"/></svg>
